assets/img/braze_icons/currency-euro.svg

<svg fill="none" height="24" viewBox="0 0 24 24" width="24" xmlns="http://www.w3.org/2000/svg"><path d="m6.62407 9c1.15733-2.64886 3.80043-4.5 6.87593-4.5 1.8515 0 3.5441.66965 4.8526 1.78117.4209.35756 1.052.3062 1.4095-.11472.3576-.42092.3062-1.052-.1147-1.40955-1.6564-1.40708-3.8039-2.2569-6.1474-2.2569-4.19838 0-7.76067 2.72342-9.01659 6.5h-1.48341c-.55228 0-1 .44772-1 1 0 .5523.44772 1 1 1h1.052c-.03438.3286-.052.6623-.052 1s.01762.6714.052 1h-1.052c-.55228 0-1 .4477-1 1s.44772 1 1 1h1.48341c1.25592 3.7766 4.81821 6.5 9.01659 6.5 2.3435 0 4.491-.8498 6.1474-2.2569.4209-.3576.4723-.9886.1147-1.4095-.3575-.421-.9886-.4723-1.4095-.1148-1.3085 1.1116-3.0011 1.7812-4.8526 1.7812-3.0755 0-5.7186-1.8511-6.87593-4.5h6.37593c.5523 0 1-.4477 1-1s-.4477-1-1-1h-6.93391c-.04359-.3271-.06609-.6609-.06609-1s.0225-.6729.06609-1h6.93391c.5523 0 1-.4477 1-1 0-.55228-.4477-1-1-1z" fill="#801ed7"/></svg>

<svg width="24" height="24" viewBox="0 0 24 24" fill="none" xmlns="http://www.w3.org/2000/svg">
<path d="M6.62407 9C7.7814 6.35114 10.4245 4.5 13.5 4.5C15.3515 4.5 17.0441 5.16965 18.3526 6.28117C18.7735 6.63873 19.4046 6.58737 19.7621 6.16645C20.1197 5.74553 20.0683 5.11445 19.6474 4.7569C17.991 3.34982 15.8435 2.5 13.5 2.5C9.30162 2.5 5.73933 5.22342 4.48341 9H3C2.44772 9 2 9.44772 2 10C2 10.5523 2.44772 11 3 11H4.052C4.01762 11.3286 4 11.6623 4 12C4 12.3377 4.01762 12.6714 4.052 13H3C2.44772 13 2 13.4477 2 14C2 14.5523 2.44772 15 3 15H4.48341C5.73933 18.7766 9.30162 21.5 13.5 21.5C15.8435 21.5 17.991 20.6502 19.6474 19.2431C20.0683 18.8855 20.1197 18.2545 19.7621 17.8336C19.4046 17.4126 18.7735 17.3613 18.3526 17.7188C17.0441 18.8304 15.3515 19.5 13.5 19.5C10.4245 19.5 7.7814 17.6489 6.62407 15H13C13.5523 15 14 14.5523 14 14C14 13.4477 13.5523 13 13 13H6.06609C6.0225 12.6729 6 12.3391 6 12C6 11.6609 6.0225 11.3271 6.06609 11H13C13.5523 11 14 10.5523 14 10C14 9.44772 13.5523 9 13 9H6.62407Z" fill="#801ED7"/>
</svg>
